X:669
T: MARIA GIENG AUS WANDERN
N: E2058C
O: Europa, Mitteleuropa, Deutschland, Hessen, Darmstadt
R: geistlich, Marien - Lied, Legende
M: 4/4
L: 1/8
K: F
FG | A3GABcd | c2BAG2
cA | G2G2G2FG | A4z2
FG | A2A2A2GF | G4z2
GA | B2cBA2G2 | F4z2

@@@ Tune index: 5353
